X:1
T:The Pensioner's Com[laint
M:6/8
L:1/8
K:C
 A3/2- G/2| FED GFG| ABc d2 d| cBA BAG| AGE C z C| DEF GGG| ABc d z d/2d/2|\
 cBA BAG| E D2 z2||
